symbols/web/play_circle/materialsymbolsoutlined/play_circle_wght300gradN25fill1_40px.svg

<svg xmlns="http://www.w3.org/2000/svg" height="40" width="40"><path d="M16.375 26.417 26.417 20l-10.042-6.417ZM20 35.625q-3.208 0-6.063-1.229-2.854-1.229-4.979-3.354t-3.354-4.959Q4.375 23.25 4.375 20t1.229-6.104q1.229-2.854 3.354-4.958 2.125-2.105 4.959-3.334Q16.75 4.375 20 4.375t6.104 1.229q2.854 1.229 4.958 3.334 2.105 2.104 3.334 4.958T35.625 20q0 3.208-1.229 6.062-1.229 2.855-3.334 4.98-2.104 2.125-4.958 3.354T20 35.625Z"/></svg>

<svg xmlns="http://www.w3.org/2000/svg" height="40" width="40"><path d="M20 35.625Q16.792 35.625 13.937 34.396Q11.083 33.167 8.958 31.042Q6.833 28.917 5.604 26.083Q4.375 23.25 4.375 20Q4.375 16.792 5.604 13.938Q6.833 11.083 8.958 8.958Q11.083 6.833 13.917 5.604Q16.75 4.375 20 4.375Q23.208 4.375 26.062 5.604Q28.917 6.833 31.042 8.958Q33.167 11.083 34.396 13.917Q35.625 16.75 35.625 20Q35.625 23.208 34.396 26.062Q33.167 28.917 31.042 31.042Q28.917 33.167 26.083 34.396Q23.25 35.625 20 35.625ZM16.375 26.417 26.417 20 16.375 13.583Z"/></svg>
